X:1
T:Freuet euch, ihr Christen
T:Johann Sebastian Bach 
%%score { ( 1 2 ) | ( 3 4 ) }
L:1/8
Q:1/4=96
M:4/4
K:Eb
V:1 treble nm="Organ" snm="Org."
V:2 treble 
V:3 bass 
V:4 bass 
V:1
"^Andante" c2 c2 B2 A2 | G3 F F2 !fermata!F2 | A3 B c2 c2 | B3 A !fermata!A4 | A2 B2 B2 A2 | %5
 G3 F !fermata!F4 | c2 c2 _d2 _d2 | B2 B2 c2 !fermata!c2 | A2 A2 _d2 _d2 | c2 c2 !fermata!B4 | %10
 G2 _A2 B2 A2 | G2 G2 !fermata!F4 | f2 f2 e2 e2 | d2 d2 c2 !fermata!c2 | c2 c2 _d2 c2 | %15
 B3 A A2 !fermata!A2 | A2 A2 _d2 _d2 | B2 B2 e2 e2 | %18
[Q:1/4=92]"^-"!8va(! c'2[Q:1/4=92][Q:1/4=88]"^-" c'2[Q:1/4=84]"^-" f'2[Q:1/4=80]"^-" f'2!8va)! | %19
[Q:1/4=76]"^-" =e2[Q:1/4=72]"^-" =e2[Q:1/4=68]"^-" f2[Q:1/4=64]"^-" !fermata!f2 |] %20
V:2
 F2 F2 F=E F2 | FG =E2 F2 C2 | F3 G A2 A2 | AF G2 E4 | F2 G2 =E2 F2 | F2 =E2 C4 | F2 F2 F2 F2 | %7
 GABG A2 A2 | F2 F2 B2 B2 | B2 =A2 F4 | =E2 F2 F=E F2 | F2 =E2 C4 | A2 A2 G2 G2 | GAGF =E2 =E2 | %14
 F2 F2 FG A2 | AF G2 E2 E2 | F2 F2 B2 B2 | G2 G2 c2 c2 |!8va(! agab c'2 ba!8va)! | G2 G2 =A2 =A2 |] %20
V:3
 A,2 =A,2 B,2 C2 | _D2 CB, A,2 A,2 | C3 B, E2 E2 | F2 E_D C4 | _D2 _D2 G,2 F,A, | _D2 CB, A,4 | %6
 =A,B,C_A, B,2 B,2 | B,2 E2 E2 E2 | _D2 _D2 F2 F2 | _G2 FE _D4 | C2 C2 B,2 C2 | _D2 CB, A,4 | %12
 C2 C2 C2 C2 | C2 =B,2 C2 G,2 | =A,2 =A,2 B,2 E,2 | E3 _D C2 C2 | _D2 _D2 F2 F2 | E2 E2 G2 G2 | %18
 F2 F2 C2 F,2 | C2 C2 C2 C2 |] %20
V:4
 F,2 E,2 _D,2 C,2 | B,,2 C,2 F,,2 !fermata!F,,2 | F,2 E,_D, C,B,, A,,2 | _D,2 E,2 !fermata!A,,4 | %4
 _D,2 C,B,, C,2 _D,2 | B,,2 C,2 !fermata!F,,4 | F,G,=A,F, B,,C,_D,B,, | E,F,G,E, A,2 !fermata!A,2 | %8
 _D,E,F,_D, B,,C,_D,B,, | E,C, F,2 !fermata!B,,4 | B,2 A,2 G,2 F,2 | B,,2 C,2 !fermata!F,,4 | %12
 F,,G,,A,,B,, C,D,E,F, | G,2 G,,2 C,2 !fermata!C,2 | F,E,_D,C, B,,2 C,_D, | %15
 E,2 E,2 A,,2 !fermata!A,,2 | _D,E,_D,C, B,,C,_D,B,, | E,F,E,_D, C,_D,E,C, | F,=E,F,G, A,G,A,B, | %19
 C2 C,2 F,2 F,2 |] %20

